{"type":"map","version":"1.10","tiledversion":"1.11.2","orientation":"orthogonal","renderorder":"right-down","width":40,"height":30,"tilewidth":16,"tileheight":16,"infinite":false,"layers":[{"id":1,"name":"Ground","type":"tilelayer","width":40,"height":30,"x":0,"y":0,"opacity":1,"visible":true,"data":[18,18,18,18,18,18,18,18,18,18,18,18,18,18,18,18,18,18,18,18,18,18,18,18,18,18,18,18,18,18,18,18,18,18,18,18,18,18,18,18,18,18,18,18,18,18,18,18,18,18,18,18,18,18,18,18,18,18,18,18,18,18,18,18,18,18,18,18,18,18,18,18,18,18,18,18,18,18,18,18,18,18,18,18,18,18,18,18,18,18,18,18,18,18,18,18,18,679,358,359,359,359,359,359,359,359,360,656,18,18,18,18,18,18,18,18,18,18,18,18,18,18,18,18,18,18,18,18,18,18,18,18,18,18,18,18,18,687,374,375,375,375,375,375,375,375,376,664,18,18,18,18,18,18,18,18,18,18,18,18,18,18,18,18,18,18,18,18,18,18,18,18,18,18,18,18,18,695,671,671,671,671,711,671,671,671,671,672,18,18,18,18,18,18,18,18,18,18,18,18,18,18,18,18,18,11,11,11,11,11,11,11,18,18,18,18,18,18,18,18,18,18,663,18,18,18,18,18,18,18,18,18,18,18,18,18,18,18,18,18,18,18,18,18,18,11,11,11,11,11,11,11,18,18,18,18,18,18,18,18,18,679,703,656,18,18,18,18,18,18,18,18,18,18,18,18,18,18,18,18,18,18,18,18,663,11,11,11,11,11,11,11,679,655,655,655,655,655,656,18,18,687,663,664,18,18,18,18,18,18,18,18,18,18,18,18,18,18,18,18,18,18,18,18,687,655,655,655,655,655,655,655,703,663,663,663,663,663,664,18,18,687,663,664,18,18,18,18,18,18,18,18,18,18,18,18,18,18,18,18,18,18,18,18,695,671,671,671,671,671,671,671,671,671,671,671,711,663,664,18,18,687,663,664,18,18,18,18,18,18,18,18,18,18,18,18,18,18,18,18,18,18,18,18,18,18,18,18,18,18,18,18,18,18,18,18,687,663,664,18,18,687,663,664,18,18,18,18,18,18,18,18,18,18,18,18,18,18,18,18,18,18,18,18,18,18,18,18,18,18,18,18,18,18,18,18,687,663,664,18,18,687,663,704,663,663,663,663,663,663,663,663,663,18,18,18,18,18,18,18,18,18,18,18,11,11,11,11,11,11,18,18,18,18,18,18,687,663,664,18,18,687,663,664,11,11,11,11,11,11,18,18,18,18,18,18,18,18,18,18,18,18,18,18,11,11,11,11,11,11,18,18,18,18,18,18,687,663,664,18,18,695,671,672,11,11,11,11,11,11,18,18,18,18,18,18,18,18,18,18,18,18,18,18,11,11,11,11,11,11,663,18,18,18,18,18,687,663,664,18,18,18,18,18,11,11,11,11,11,11,18,18,18,18,18,18,18,18,18,18,18,18,18,18,11,11,11,11,11,11,663,18,18,18,18,18,687,663,664,18,18,18,18,18,11,11,11,11,11,11,18,18,18,18,18,18,18,18,18,18,18,18,18,18,18,18,18,18,679,655,664,18,18,18,18,18,687,663,664,18,18,18,18,18,11,11,11,11,11,11,18,18,18,18,18,18,18,18,18,18,18,18,18,18,18,18,18,18,687,663,664,18,18,18,18,18,687,663,664,18,18,18,18,18,11,11,11,11,11,11,18,18,18,18,18,18,18,18,18,18,18,18,18,18,18,18,18,18,687,663,664,18,18,18,18,18,687,663,664,18,18,18,18,18,18,18,18,18,18,18,18,18,18,18,18,18,18,18,18,18,18,18,18,18,18,18,18,18,687,663,664,18,18,18,18,18,687,663,664,18,18,18,18,18,18,18,18,18,18,18,18,18,18,18,18,18,18,18,18,18,18,18,18,18,18,18,18,18,687,663,664,18,18,18,18,18,687,663,664,18,18,18,18,18,18,18,422,423,423,423,423,423,424,18,18,18,18,18,18,18,18,18,18,18,18,18,18,18,687,663,664,18,18,18,18,18,687,663,664,18,18,18,18,18,18,18,430,431,431,431,431,431,432,18,18,18,18,18,18,18,18,18,18,18,18,18,18,18,687,663,664,18,18,18,18,18,687,663,664,18,18,18,18,18,18,18,430,431,431,431,431,431,432,18,18,18,18,18,18,18,18,18,18,18,18,18,18,18,687,663,704,655,655,655,655,655,703,663,704,655,655,655,655,655,655,656,549,550,550,550,550,550,551,663,18,18,18,18,18,18,18,18,18,18,18,18,18,18,687,663,663,663,663,663,663,663,663,663,663,663,663,663,663,663,663,704,655,655,655,655,655,655,655,664,18,18,18,18,18,18,18,18,18,18,18,18,18,18,687,663,712,671,671,671,671,671,671,671,671,671,671,671,671,671,671,671,671,671,671,671,671,671,671,672,18,18,18,18,18,18,18,18,18,18,18,18,18,18,687,663,664,18,18,18,18,18,18,18,18,18,18,18,18,18,18,18,18,18,18,18,18,18,18,18,18,18,18,18,18,18,18,18,18,18,18,18,18,18,687,663,664,18,18,18,18,18,18,18,18,18,18,18,18,18,18,18,18,18,18,18,18,18,18,18,18,18,18,18,18,18,18,18,18,18,18,18,18,18,695,671,672,18,18,18,18,18,18,18,18,18,18,18,18,18,18,18,18,18,18,18,18,18,18,18,18,18,18,18,18,18,18,18,18,18,18,18,18,18,18,18,18,18,18,18,18,18,18,18,18,18,18,18,18,18,18,18,18,18,18,18,18,18,18,18,18,18,18,18,18,18]},{"id":2,"name":"Structures","type":"tilelayer","width":40,"height":30,"x":0,"y":0,"opacity":1,"visible":true,"data":[0,0,0,0,0,0,0,0,0,0,0,0,0,0,0,0,0,0,0,0,0,0,0,0,0,0,0,0,0,0,0,0,0,0,0,0,0,0,0,0,0,0,0,0,0,0,0,0,0,0,0,0,0,0,0,0,0,0,0,0,0,0,0,0,0,0,0,0,0,0,0,0,0,0,0,0,0,0,0,0,0,0,0,0,0,0,0,0,0,0,0,0,0,0,0,0,0,362,0,0,0,0,0,0,0,0,0,362,0,0,0,0,0,0,0,0,0,0,0,0,0,0,0,0,0,0,0,0,0,0,0,0,0,0,0,0,0,0,0,0,0,0,0,0,0,0,0,0,0,0,0,0,0,0,0,0,0,0,0,0,0,0,0,0,0,0,0,0,0,0,0,0,0,0,0,0,0,0,0,0,0,0,0,0,361,0,0,0,0,0,0,0,0,0,0,0,0,0,0,0,0,0,0,0,0,0,0,0,0,0,0,0,0,0,215,215,215,215,215,215,215,215,0,215,215,215,215,215,215,215,215,215,215,215,215,215,0,0,0,0,0,0,0,0,0,0,0,0,0,0,0,0,0,0,0,730,0,0,0,0,730,0,0,0,0,0,0,0,681,682,682,682,682,702,694,0,0,0,0,0,0,0,0,0,0,0,0,0,0,0,0,0,0,0,0,0,0,0,0,0,0,0,0,0,0,0,0,0,689,690,690,690,690,692,693,160,0,0,0,0,0,0,0,0,0,0,0,0,0,0,0,0,0,0,0,0,0,0,0,0,0,0,0,0,0,0,0,0,697,698,698,698,698,700,701,0,0,0,0,0,0,0,0,0,0,0,0,0,0,0,0,0,0,0,0,0,0,0,0,0,0,0,0,0,0,160,0,0,705,706,721,707,708,709,710,0,0,0,0,0,0,0,0,0,152,152,152,152,152,152,152,152,152,152,152,0,0,0,0,0,0,0,0,0,0,0,0,730,713,714,729,685,716,717,718,0,0,0,0,0,0,0,0,0,0,0,0,0,0,0,0,0,0,0,0,0,0,0,0,0,0,0,0,0,0,0,0,0,0,0,0,0,0,0,0,0,0,0,0,0,0,0,0,0,0,0,0,0,0,0,0,0,0,160,0,0,0,0,0,0,0,0,0,0,0,0,0,0,0,0,0,0,0,0,0,0,0,0,0,0,0,0,0,0,0,0,0,0,0,0,0,0,0,0,0,0,0,0,0,0,0,0,0,0,0,0,0,0,0,0,0,0,0,0,0,0,0,0,0,0,0,0,0,0,0,0,0,0,0,0,0,0,0,0,160,0,0,0,0,0,0,0,0,0,0,0,0,0,0,0,0,0,0,0,0,0,0,0,0,0,0,0,0,0,0,0,0,0,0,0,0,0,0,0,0,0,0,0,0,0,0,0,0,0,0,0,0,0,0,0,0,0,0,0,0,0,0,0,0,0,0,0,0,0,0,0,0,0,0,0,0,0,0,0,0,0,0,0,0,0,0,0,0,0,0,0,0,0,0,0,0,0,0,0,0,0,0,0,0,0,0,0,0,0,0,0,0,0,0,0,0,0,0,0,0,0,0,0,0,0,0,0,0,0,0,0,0,0,0,0,0,0,0,0,0,0,0,0,0,0,0,0,0,0,0,0,0,0,0,0,0,0,0,0,0,0,0,0,0,0,0,0,0,0,0,0,0,0,0,0,0,0,0,0,0,0,0,0,0,0,0,0,0,0,642,643,643,643,644,0,0,0,0,0,0,0,0,0,0,0,0,0,0,0,0,0,0,0,0,0,0,0,0,0,0,0,0,0,0,0,0,0,0,0,650,651,651,651,652,0,0,0,0,0,0,0,0,0,0,0,0,0,0,0,0,0,0,0,0,0,0,0,0,0,0,0,0,0,0,0,0,0,0,0,658,660,659,659,661,0,0,0,0,0,0,0,0,0,0,0,0,0,0,0,0,0,0,0,0,0,0,0,0,0,0,0,0,0,0,0,0,0,0,0,665,666,667,668,669,0,0,0,0,0,0,0,0,0,0,0,0,0,0,0,0,0,0,0,0,0,0,0,0,0,0,0,0,0,0,0,0,0,0,0,673,676,675,674,677,0,0,0,0,0,0,0,0,0,0,0,0,0,0,0,0,0,0,0,0,0,0,0,0,0,0,0,0,0,0,0,0,0,0,0,686,0,0,0,0,0,0,730,0,0,0,0,0,0,0,0,0,0,0,0,0,0,0,0,0,0,0,0,0,0,160,0,0,0,0,0,0,0,0,0,0,0,0,0,0,0,0,0,0,0,0,0,0,0,0,0,0,0,0,0,0,0,0,0,0,0,0,0,0,0,0,0,0,0,0,0,0,0,0,0,0,0,0,0,0,0,0,0,0,0,0,0,0,0,0,0,0,0,0,0,0,0,0,0,0,0,0,0,0,0,0,0,0,0,0,0,0,0,0,0,0,0,0,0,0,0,0,0,0,0,0,0,0,0,0,0,0,0,0,0,0,0,0,0,0,0,0,0,0,0,0,0,0,0,0,0,0,0,0,0,0,0,0,0,0,0,0,0,0,0,0,0,0,0,0,0,0,0,0,0,0,0,0,0,0,0,0,0,0,0,0,0,0,0,0,0,0,0,0,0,0,0,0,0,0,0,0,0,0,0,0,0,0,0,0,0,0,0,0,0,0,0,0,0,0,0,0,0,0,0,0,0,0,0,0,0]},{"id":3,"name":"Collision","type":"tilelayer","width":40,"height":30,"x":0,"y":0,"opacity":1,"visible":false,"data":[0,0,0,0,0,0,0,0,0,0,0,0,0,0,1,1,1,1,1,1,1,1,1,1,1,1,1,1,1,1,1,1,1,1,1,1,0,0,0,0,0,0,0,0,0,0,0,0,0,0,0,0,0,0,1,1,1,1,1,1,1,1,1,1,1,1,1,1,1,1,1,1,1,1,1,1,0,0,0,0,1,1,1,1,1,1,1,1,1,1,1,1,1,1,0,0,0,1,0,0,0,0,0,0,0,0,0,1,0,0,0,0,0,0,0,0,1,1,1,1,1,1,1,1,1,1,1,1,1,1,1,1,1,1,0,0,0,0,0,0,0,0,0,0,0,0,0,0,0,0,0,0,0,0,0,0,1,1,1,1,1,1,1,1,0,0,0,0,0,0,1,1,1,1,0,0,0,0,0,0,0,0,0,0,1,0,0,0,0,0,0,0,0,0,0,0,1,1,1,1,1,1,1,1,0,0,0,0,0,0,1,1,1,1,1,1,1,1,1,1,1,1,0,1,1,1,1,1,1,1,1,1,1,1,1,1,1,1,1,1,1,1,1,1,0,0,0,0,0,0,0,0,0,0,0,1,0,0,0,0,1,0,0,0,0,0,0,0,1,1,1,1,1,1,1,0,1,1,1,1,1,1,1,1,0,0,0,0,0,0,0,0,0,0,0,0,0,0,0,0,0,0,0,0,0,0,0,0,1,1,1,1,1,1,1,1,1,1,1,1,1,1,1,1,0,0,0,0,0,0,0,0,0,0,0,0,0,0,0,0,0,0,0,0,0,0,0,0,1,1,1,1,1,1,1,0,1,1,1,1,1,1,1,1,0,0,0,0,0,0,0,0,0,0,0,0,0,0,0,0,0,0,0,0,0,1,0,0,1,1,1,1,1,1,1,0,1,1,1,1,1,1,1,1,1,1,1,1,1,1,1,1,1,1,1,0,0,0,0,0,0,0,0,0,0,0,0,1,1,1,1,1,1,1,1,0,1,1,1,1,1,1,1,1,0,0,0,0,0,0,0,0,0,0,0,0,0,0,0,0,0,0,0,0,0,0,0,0,0,0,0,0,0,0,0,0,1,1,1,1,1,1,1,1,0,0,0,0,0,0,0,0,0,1,0,0,0,0,0,0,0,0,0,0,0,0,0,0,0,0,0,0,0,0,0,0,1,1,1,1,1,1,1,1,0,0,0,0,0,0,0,0,0,0,0,0,0,0,0,0,0,0,0,0,0,0,0,0,0,0,0,0,0,0,0,0,1,1,1,1,1,1,1,1,0,0,0,0,0,0,0,0,0,0,1,0,0,0,0,0,0,0,0,0,0,0,0,0,0,0,1,1,1,1,0,0,1,1,1,1,1,1,1,1,0,0,0,0,0,0,0,0,0,0,0,0,0,0,0,0,0,0,0,0,0,0,0,0,0,0,1,1,1,1,0,0,1,1,1,1,1,1,1,1,0,0,0,0,0,0,0,0,0,0,0,0,0,0,0,0,0,0,0,0,0,0,0,0,0,0,0,0,0,0,0,0,1,1,1,1,1,1,1,1,0,0,0,0,0,0,0,0,0,0,0,0,0,0,0,0,0,0,0,0,0,0,0,0,0,0,0,0,0,0,0,0,1,1,1,1,1,1,1,1,0,0,0,0,0,0,0,0,1,1,0,0,0,0,0,0,1,1,0,0,0,0,0,0,0,0,0,0,0,0,0,0,1,1,1,1,1,1,1,1,1,1,1,1,1,0,0,0,1,1,0,0,0,0,0,0,1,1,0,0,0,0,0,0,0,0,0,0,0,0,0,0,1,1,1,1,1,1,1,1,1,1,1,1,1,0,0,0,1,1,0,0,0,0,0,0,1,1,0,0,0,0,1,1,1,1,1,1,1,0,0,0,1,1,1,1,1,1,1,1,1,1,1,1,1,0,0,0,1,1,0,0,0,0,0,0,1,1,0,0,0,0,1,1,1,1,1,1,1,0,0,0,1,1,1,1,1,1,1,1,1,1,1,1,1,0,0,0,0,0,0,0,0,0,0,0,0,0,0,0,0,0,1,1,1,1,1,1,1,0,0,0,1,1,1,1,1,1,1,1,1,1,1,1,1,0,0,0,0,0,0,0,0,0,0,0,0,0,0,0,0,0,1,1,1,1,1,1,1,0,0,0,1,1,1,1,1,1,1,1,1,0,0,0,0,0,0,1,0,0,0,0,0,0,0,0,0,0,0,0,0,0,0,0,0,0,0,0,0,0,1,0,1,1,1,1,1,1,1,1,0,0,0,0,0,0,0,0,0,0,0,0,0,0,0,0,0,0,0,0,0,0,0,0,0,0,0,0,0,0,0,0,1,1,1,1,1,1,1,1,0,0,0,0,0,0,0,0,0,0,0,0,0,0,0,0,0,0,0,0,0,0,0,0,0,0,0,0,0,0,0,0,1,1,1,1,1,1,1,1,0,0,0,0,0,0,0,0,0,0,0,0,0,0,0,0,0,0,0,0,0,0,0,0,0,0,0,0,0,0,0,0,1,1,1,1,1,1,1,1,1,1,1,1,1,1,1,1,1,1,1,1,1,1,1,1,1,1,1,1,1,1,1,1,1,1,1,1,1,1,1,1,1,1,1,1,1,1,1,1,1,1,1,1,1,1,1,1,1,1,1,1,1,1,1,1,1,1,1,1,1,1,1,1,1,1,1,1,1,1,1,1,1,1,1,1]},{"id":4,"name":"Grass","type":"tilelayer","width":40,"height":30,"x":0,"y":0,"opacity":1,"visible":false,"data":[0,0,0,0,0,0,0,0,0,0,0,0,0,0,0,0,0,0,0,0,0,0,0,0,0,0,0,0,0,0,0,0,0,0,0,0,0,0,0,0,0,0,0,0,0,0,0,0,0,0,0,0,0,0,0,0,0,0,0,0,0,0,0,0,0,0,0,0,0,0,0,0,0,0,0,0,0,0,0,0,0,0,0,0,0,0,0,0,0,0,0,0,0,0,0,0,0,0,0,0,0,0,0,0,0,0,0,0,0,0,0,0,0,0,0,0,0,0,0,0,0,0,0,0,0,0,0,0,0,0,0,0,0,0,0,0,0,0,0,0,0,0,0,0,0,0,0,0,0,0,0,0,0,0,0,0,0,0,0,0,0,0,0,0,0,0,0,0,0,0,0,0,0,0,0,0,0,0,0,0,0,0,0,0,0,0,0,0,0,0,0,0,0,0,0,0,0,0,0,0,0,0,0,0,0,11,11,11,11,11,11,11,0,0,0,0,0,0,0,0,0,0,0,0,0,0,0,0,0,0,0,0,0,0,0,0,0,0,0,0,0,0,0,0,0,11,11,11,11,11,11,11,0,0,0,0,0,0,0,0,0,0,0,0,0,0,0,0,0,0,0,0,0,0,0,0,0,0,0,0,0,0,0,0,0,11,11,11,11,11,11,11,0,0,0,0,0,0,0,0,0,0,0,0,0,0,0,0,0,0,0,0,0,0,0,0,0,0,0,0,0,0,0,0,0,0,0,0,0,0,0,0,0,0,0,0,0,0,0,0,0,0,0,0,0,0,0,0,0,0,0,0,0,0,0,0,0,0,0,0,0,0,0,0,0,0,0,0,0,0,0,0,0,0,0,0,0,0,0,0,0,0,0,0,0,0,0,0,0,0,0,0,0,0,0,0,0,0,0,0,0,0,0,0,0,0,0,0,0,0,0,0,0,0,0,0,0,0,0,0,0,0,0,0,0,0,0,0,0,0,0,0,0,0,0,0,0,0,0,0,0,0,0,0,0,0,0,0,0,0,0,0,0,0,0,0,0,0,0,0,0,0,0,0,0,0,0,0,0,0,0,0,0,0,0,0,0,0,0,0,0,0,0,0,11,11,11,11,11,11,0,0,0,0,0,0,0,0,0,0,0,0,0,0,11,11,11,11,11,11,0,0,0,0,0,0,0,0,0,0,0,0,0,0,11,11,11,11,11,11,0,0,0,0,0,0,0,0,0,0,0,0,0,0,11,11,11,11,11,11,0,0,0,0,0,0,0,0,0,0,0,0,0,0,11,11,11,11,11,11,0,0,0,0,0,0,0,0,0,0,0,0,0,0,11,11,11,11,11,11,0,0,0,0,0,0,0,0,0,0,0,0,0,0,11,11,11,11,11,11,0,0,0,0,0,0,0,0,0,0,0,0,0,0,11,11,11,11,11,11,0,0,0,0,0,0,0,0,0,0,0,0,0,0,0,0,0,0,0,0,0,0,0,0,0,0,0,0,0,0,0,0,0,0,11,11,11,11,11,11,0,0,0,0,0,0,0,0,0,0,0,0,0,0,0,0,0,0,0,0,0,0,0,0,0,0,0,0,0,0,0,0,0,0,11,11,11,11,11,11,0,0,0,0,0,0,0,0,0,0,0,0,0,0,0,0,0,0,0,0,0,0,0,0,0,0,0,0,0,0,0,0,0,0,0,0,0,0,0,0,0,0,0,0,0,0,0,0,0,0,0,0,0,0,0,0,0,0,0,0,0,0,0,0,0,0,0,0,0,0,0,0,0,0,0,0,0,0,0,0,0,0,0,0,0,0,0,0,0,0,0,0,0,0,0,0,0,0,0,0,0,0,0,0,0,0,0,0,0,0,0,0,0,0,0,0,0,0,0,0,0,0,0,0,0,0,0,0,0,0,0,0,0,0,0,0,0,0,0,0,0,0,0,0,0,0,0,0,0,0,0,0,0,0,0,0,0,0,0,0,0,0,0,0,0,0,0,0,0,0,0,0,0,0,0,0,0,0,0,0,0,0,0,0,0,0,0,0,0,0,0,0,0,0,0,0,0,0,0,0,0,0,0,0,0,0,0,0,0,0,0,0,0,0,0,0,0,0,0,0,0,0,0,0,0,0,0,0,0,0,0,0,0,0,0,0,0,0,0,0,0,0,0,0,0,0,0,0,0,0,0,0,0,0,0,0,0,0,0,0,0,0,0,0,0,0,0,0,0,0,0,0,0,0,0,0,0,0,0,0,0,0,0,0,0,0,0,0,0,0,0,0,0,0,0,0,0,0,0,0,0,0,0,0,0,0,0,0,0,0,0,0,0,0,0,0,0,0,0,0,0,0,0,0,0,0,0,0,0,0,0,0,0,0,0,0,0,0,0,0,0,0,0,0,0,0,0,0,0,0,0,0,0,0,0,0,0,0,0,0,0,0,0,0,0,0,0,0,0,0,0,0,0,0,0,0,0,0,0,0,0,0,0,0,0,0,0,0,0,0,0,0,0,0,0,0,0,0,0,0,0,0,0,0,0,0,0,0,0,0,0,0,0,0,0,0,0,0,0,0,0,0,0,0,0,0,0,0,0,0,0,0,0,0,0,0,0,0,0,0,0,0,0,0,0,0,0,0,0,0,0,0,0,0,0,0,0,0,0,0,0,0,0,0,0,0,0,0,0,0,0,0,0,0,0,0,0,0,0,0,0,0,0,0,0,0,0,0,0,0]},{"id":5,"name":"Objects","type":"objectgroup","opacity":1,"visible":true,"objects":[{"id":1,"name":"forest","type":"tree","x":0,"y":16,"width":32,"height":48,"properties":[]},{"id":2,"name":"forest","type":"tree","x":32,"y":16,"width":32,"height":48,"properties":[]},{"id":3,"name":"forest","type":"tree","x":576,"y":16,"width":32,"height":48,"properties":[]},{"id":4,"name":"forest","type":"tree","x":608,"y":16,"width":32,"height":48,"properties":[]},{"id":5,"name":"forest","type":"tree","x":0,"y":48,"width":32,"height":48,"properties":[]},{"id":6,"name":"forest","type":"tree","x":32,"y":48,"width":32,"height":48,"properties":[]},{"id":7,"name":"forest","type":"tree","x":576,"y":48,"width":32,"height":48,"properties":[]},{"id":8,"name":"forest","type":"tree","x":608,"y":48,"width":32,"height":48,"properties":[]},{"id":9,"name":"forest","type":"tree","x":0,"y":80,"width":32,"height":48,"properties":[]},{"id":10,"name":"forest","type":"tree","x":32,"y":80,"width":32,"height":48,"properties":[]},{"id":11,"name":"forest","type":"tree","x":576,"y":80,"width":32,"height":48,"properties":[]},{"id":12,"name":"forest","type":"tree","x":608,"y":80,"width":32,"height":48,"properties":[]},{"id":13,"name":"forest","type":"tree","x":0,"y":112,"width":32,"height":48,"properties":[]},{"id":14,"name":"forest","type":"tree","x":32,"y":112,"width":32,"height":48,"properties":[]},{"id":15,"name":"forest","type":"tree","x":576,"y":112,"width":32,"height":48,"properties":[]},{"id":16,"name":"forest","type":"tree","x":608,"y":112,"width":32,"height":48,"properties":[]},{"id":17,"name":"forest","type":"tree","x":0,"y":144,"width":32,"height":48,"properties":[]},{"id":18,"name":"forest","type":"tree","x":32,"y":144,"width":32,"height":48,"properties":[]},{"id":19,"name":"forest","type":"tree","x":576,"y":144,"width":32,"height":48,"properties":[]},{"id":20,"name":"forest","type":"tree","x":608,"y":144,"width":32,"height":48,"properties":[]},{"id":21,"name":"forest","type":"tree","x":0,"y":176,"width":32,"height":48,"properties":[]},{"id":22,"name":"forest","type":"tree","x":32,"y":176,"width":32,"height":48,"properties":[]},{"id":23,"name":"forest","type":"tree","x":576,"y":176,"width":32,"height":48,"properties":[]},{"id":24,"name":"forest","type":"tree","x":608,"y":176,"width":32,"height":48,"properties":[]},{"id":25,"name":"forest","type":"tree","x":0,"y":208,"width":32,"height":48,"properties":[]},{"id":26,"name":"forest","type":"tree","x":32,"y":208,"width":32,"height":48,"properties":[]},{"id":27,"name":"forest","type":"tree","x":576,"y":208,"width":32,"height":48,"properties":[]},{"id":28,"name":"forest","type":"tree","x":608,"y":208,"width":32,"height":48,"properties":[]},{"id":29,"name":"forest","type":"tree","x":0,"y":240,"width":32,"height":48,"properties":[]},{"id":30,"name":"forest","type":"tree","x":32,"y":240,"width":32,"height":48,"properties":[]},{"id":31,"name":"forest","type":"tree","x":576,"y":240,"width":32,"height":48,"properties":[]},{"id":32,"name":"forest","type":"tree","x":608,"y":240,"width":32,"height":48,"properties":[]},{"id":33,"name":"forest","type":"tree","x":0,"y":272,"width":32,"height":48,"properties":[]},{"id":34,"name":"forest","type":"tree","x":32,"y":272,"width":32,"height":48,"properties":[]},{"id":35,"name":"forest","type":"tree","x":576,"y":272,"width":32,"height":48,"properties":[]},{"id":36,"name":"forest","type":"tree","x":608,"y":272,"width":32,"height":48,"properties":[]},{"id":37,"name":"forest","type":"tree","x":0,"y":304,"width":32,"height":48,"properties":[]},{"id":38,"name":"forest","type":"tree","x":32,"y":304,"width":32,"height":48,"properties":[]},{"id":39,"name":"forest","type":"tree","x":576,"y":304,"width":32,"height":48,"properties":[]},{"id":40,"name":"forest","type":"tree","x":608,"y":304,"width":32,"height":48,"properties":[]},{"id":41,"name":"forest","type":"tree","x":0,"y":336,"width":32,"height":48,"properties":[]},{"id":42,"name":"forest","type":"tree","x":32,"y":336,"width":32,"height":48,"properties":[]},{"id":43,"name":"forest","type":"tree","x":576,"y":336,"width":32,"height":48,"properties":[]},{"id":44,"name":"forest","type":"tree","x":608,"y":336,"width":32,"height":48,"properties":[]},{"id":45,"name":"forest","type":"tree","x":0,"y":368,"width":32,"height":48,"properties":[]},{"id":46,"name":"forest","type":"tree","x":32,"y":368,"width":32,"height":48,"properties":[]},{"id":47,"name":"forest","type":"tree","x":576,"y":368,"width":32,"height":48,"properties":[]},{"id":48,"name":"forest","type":"tree","x":608,"y":368,"width":32,"height":48,"properties":[]},{"id":49,"name":"forest","type":"tree","x":0,"y":400,"width":32,"height":48,"properties":[]},{"id":50,"name":"forest","type":"tree","x":32,"y":400,"width":32,"height":48,"properties":[]},{"id":51,"name":"forest","type":"tree","x":576,"y":400,"width":32,"height":48,"properties":[]},{"id":52,"name":"forest","type":"tree","x":608,"y":400,"width":32,"height":48,"properties":[]},{"id":53,"name":"forest","type":"tree","x":0,"y":432,"width":32,"height":48,"properties":[]},{"id":54,"name":"forest","type":"tree","x":32,"y":432,"width":32,"height":48,"properties":[]},{"id":55,"name":"forest","type":"tree","x":576,"y":432,"width":32,"height":48,"properties":[]},{"id":56,"name":"forest","type":"tree","x":608,"y":432,"width":32,"height":48,"properties":[]},{"id":57,"name":"forest","type":"tree","x":64,"y":16,"width":32,"height":48,"properties":[]},{"id":58,"name":"forest","type":"tree","x":64,"y":432,"width":32,"height":48,"properties":[]},{"id":59,"name":"forest","type":"tree","x":96,"y":16,"width":32,"height":48,"properties":[]},{"id":60,"name":"forest","type":"tree","x":96,"y":432,"width":32,"height":48,"properties":[]},{"id":61,"name":"forest","type":"tree","x":128,"y":16,"width":32,"height":48,"properties":[]},{"id":62,"name":"forest","type":"tree","x":128,"y":432,"width":32,"height":48,"properties":[]},{"id":63,"name":"forest","type":"tree","x":160,"y":16,"width":32,"height":48,"properties":[]},{"id":64,"name":"forest","type":"tree","x":160,"y":432,"width":32,"height":48,"properties":[]},{"id":65,"name":"forest","type":"tree","x":192,"y":16,"width":32,"height":48,"properties":[]},{"id":66,"name":"forest","type":"tree","x":192,"y":432,"width":32,"height":48,"properties":[]},{"id":67,"name":"forest","type":"tree","x":224,"y":-16,"width":32,"height":48,"properties":[]},{"id":68,"name":"forest","type":"tree","x":224,"y":432,"width":32,"height":48,"properties":[]},{"id":69,"name":"forest","type":"tree","x":256,"y":-16,"width":32,"height":48,"properties":[]},{"id":70,"name":"forest","type":"tree","x":256,"y":432,"width":32,"height":48,"properties":[]},{"id":71,"name":"forest","type":"tree","x":288,"y":-16,"width":32,"height":48,"properties":[]},{"id":72,"name":"forest","type":"tree","x":288,"y":432,"width":32,"height":48,"properties":[]},{"id":73,"name":"forest","type":"tree","x":320,"y":-16,"width":32,"height":48,"properties":[]},{"id":74,"name":"forest","type":"tree","x":320,"y":432,"width":32,"height":48,"properties":[]},{"id":75,"name":"forest","type":"tree","x":352,"y":-16,"width":32,"height":48,"properties":[]},{"id":76,"name":"forest","type":"tree","x":352,"y":432,"width":32,"height":48,"properties":[]},{"id":77,"name":"forest","type":"tree","x":384,"y":-16,"width":32,"height":48,"properties":[]},{"id":78,"name":"forest","type":"tree","x":384,"y":432,"width":32,"height":48,"properties":[]},{"id":79,"name":"forest","type":"tree","x":416,"y":-16,"width":32,"height":48,"properties":[]},{"id":80,"name":"forest","type":"tree","x":416,"y":432,"width":32,"height":48,"properties":[]},{"id":81,"name":"forest","type":"tree","x":448,"y":-16,"width":32,"height":48,"properties":[]},{"id":82,"name":"forest","type":"tree","x":448,"y":432,"width":32,"height":48,"properties":[]},{"id":83,"name":"forest","type":"tree","x":480,"y":-16,"width":32,"height":48,"properties":[]},{"id":84,"name":"forest","type":"tree","x":480,"y":432,"width":32,"height":48,"properties":[]},{"id":85,"name":"forest","type":"tree","x":512,"y":-16,"width":32,"height":48,"properties":[]},{"id":86,"name":"forest","type":"tree","x":512,"y":432,"width":32,"height":48,"properties":[]},{"id":87,"name":"forest","type":"tree","x":544,"y":-16,"width":32,"height":48,"properties":[]},{"id":88,"name":"forest","type":"tree","x":544,"y":432,"width":32,"height":48,"properties":[]},{"id":89,"name":"grove","type":"tree","x":192,"y":272,"width":32,"height":48,"properties":[]},{"id":90,"name":"grove","type":"tree","x":192,"y":304,"width":32,"height":48,"properties":[]},{"id":91,"name":"grove","type":"tree","x":320,"y":272,"width":32,"height":48,"properties":[]},{"id":92,"name":"grove","type":"tree","x":320,"y":304,"width":32,"height":48,"properties":[]},{"id":93,"name":"grove","type":"tree","x":480,"y":208,"width":32,"height":48,"properties":[]},{"id":94,"name":"grove","type":"tree","x":512,"y":208,"width":32,"height":48,"properties":[]},{"id":95,"name":"grove","type":"tree","x":160,"y":48,"width":32,"height":48,"properties":[]},{"id":96,"name":"grove","type":"tree","x":192,"y":48,"width":32,"height":48,"properties":[]},{"id":97,"name":"office","type":"talk","x":80,"y":368,"width":16,"height":16,"properties":[{"name":"message","type":"string","value":"The office is closed. Even accountants need an adventure."}]},{"id":98,"name":"hq-sign","type":"talk","x":176,"y":384,"width":16,"height":16,"properties":[{"name":"message","type":"string","value":"LEDGER HOUSE: Where every number has a home."}]},{"id":99,"name":"spawn","type":"spawn","x":144,"y":384,"width":16,"height":16,"properties":[]},{"id":100,"name":"follower","type":"spawn","x":144,"y":400,"width":16,"height":16,"properties":[]},{"id":101,"name":"ledge","type":"ledge","x":64,"y":160,"width":16,"height":16,"properties":[{"name":"direction","type":"string","value":"down"}]},{"id":102,"name":"ledge","type":"ledge","x":80,"y":160,"width":16,"height":16,"properties":[{"name":"direction","type":"string","value":"down"}]},{"id":103,"name":"ledge","type":"ledge","x":96,"y":160,"width":16,"height":16,"properties":[{"name":"direction","type":"string","value":"down"}]},{"id":104,"name":"ledge","type":"ledge","x":112,"y":160,"width":16,"height":16,"properties":[{"name":"direction","type":"string","value":"down"}]},{"id":105,"name":"ledge","type":"ledge","x":128,"y":160,"width":16,"height":16,"properties":[{"name":"direction","type":"string","value":"down"}]},{"id":106,"name":"ledge","type":"ledge","x":144,"y":160,"width":16,"height":16,"properties":[{"name":"direction","type":"string","value":"down"}]},{"id":107,"name":"ledge","type":"ledge","x":160,"y":160,"width":16,"height":16,"properties":[{"name":"direction","type":"string","value":"down"}]},{"id":108,"name":"ledge","type":"ledge","x":176,"y":160,"width":16,"height":16,"properties":[{"name":"direction","type":"string","value":"down"}]},{"id":109,"name":"ledge","type":"ledge","x":192,"y":160,"width":16,"height":16,"properties":[{"name":"direction","type":"string","value":"down"}]},{"id":110,"name":"ledge","type":"ledge","x":208,"y":160,"width":16,"height":16,"properties":[{"name":"direction","type":"string","value":"down"}]},{"id":111,"name":"ledge","type":"ledge","x":224,"y":160,"width":16,"height":16,"properties":[{"name":"direction","type":"string","value":"down"}]},{"id":112,"name":"guard","type":"npc","x":352,"y":80,"width":16,"height":16,"properties":[{"name":"sprite","type":"string","value":"npc-guard"},{"name":"facing","type":"string","value":"down"}]},{"id":113,"name":"broker","type":"npc","x":352,"y":32,"width":16,"height":16,"properties":[{"name":"sprite","type":"string","value":"npc-broker"},{"name":"facing","type":"string","value":"down"}]},{"id":114,"name":"lass","type":"npc","x":400,"y":384,"width":16,"height":16,"properties":[{"name":"sprite","type":"string","value":"npc-lass"},{"name":"facing","type":"string","value":"left"},{"name":"wander","type":"int","value":2},{"name":"message","type":"string","value":"Have you heard? BUPAF is the event of the year! I already filed my outfit as a business expense."}]},{"id":115,"name":"youngster","type":"npc","x":368,"y":272,"width":16,"height":16,"properties":[{"name":"sprite","type":"string","value":"npc-youngster"},{"name":"facing","type":"string","value":"left"},{"name":"wander","type":"int","value":1},{"name":"message","type":"string","value":"My RATTATA is in the top 1% of RATTATA\u2026 for expense reports."}]},{"id":116,"name":"counter","type":"talk","x":320,"y":96,"width":16,"height":16,"properties":[{"name":"message","type":"string","value":"@counter"}]},{"id":117,"name":"venusaur","type":"hidden","x":112,"y":96,"width":16,"height":16,"properties":[{"name":"species","type":"string","value":"Venusaur"}]},{"id":118,"name":"pikachu","type":"hidden","x":432,"y":240,"width":16,"height":16,"properties":[{"name":"species","type":"string","value":"Pikachu"}]},{"id":119,"name":"flowers","type":"flower","x":80,"y":400,"width":16,"height":16,"properties":[]},{"id":120,"name":"flowers","type":"flower","x":96,"y":400,"width":16,"height":16,"properties":[]},{"id":121,"name":"flowers","type":"flower","x":112,"y":400,"width":16,"height":16,"properties":[]},{"id":122,"name":"flowers","type":"flower","x":192,"y":352,"width":16,"height":16,"properties":[]},{"id":123,"name":"flowers","type":"flower","x":208,"y":352,"width":16,"height":16,"properties":[]},{"id":124,"name":"flowers","type":"flower","x":224,"y":352,"width":16,"height":16,"properties":[]},{"id":125,"name":"flowers","type":"flower","x":304,"y":352,"width":16,"height":16,"properties":[]},{"id":126,"name":"flowers","type":"flower","x":320,"y":352,"width":16,"height":16,"properties":[]},{"id":127,"name":"flowers","type":"flower","x":304,"y":160,"width":16,"height":16,"properties":[]},{"id":128,"name":"flowers","type":"flower","x":320,"y":160,"width":16,"height":16,"properties":[]},{"id":129,"name":"flowers","type":"flower","x":384,"y":112,"width":16,"height":16,"properties":[]},{"id":130,"name":"flowers","type":"flower","x":400,"y":112,"width":16,"height":16,"properties":[]},{"id":131,"name":"flowers","type":"flower","x":384,"y":128,"width":16,"height":16,"properties":[]},{"id":132,"name":"flowers","type":"flower","x":544,"y":336,"width":16,"height":16,"properties":[]},{"id":133,"name":"flowers","type":"flower","x":544,"y":352,"width":16,"height":16,"properties":[]},{"id":134,"name":"flowers","type":"flower","x":208,"y":256,"width":16,"height":16,"properties":[]},{"id":135,"name":"flowers","type":"flower","x":224,"y":256,"width":16,"height":16,"properties":[]},{"id":136,"name":"flowers","type":"flower","x":416,"y":64,"width":16,"height":16,"properties":[]},{"id":137,"name":"flowers","type":"flower","x":288,"y":64,"width":16,"height":16,"properties":[]},{"id":138,"name":"pond","type":"water","x":416,"y":320,"width":112,"height":64,"properties":[]},{"id":139,"name":"lab","type":"talk","x":496,"y":160,"width":16,"height":16,"properties":[{"name":"message","type":"string","value":"PROF. LEDGER\u2019s LAB. It\u2019s locked. A note on the door says: Out catching rounding errors."}]},{"id":140,"name":"lab-sign","type":"talk","x":432,"y":160,"width":16,"height":16,"properties":[{"name":"message","type":"string","value":"PROF. LEDGER\u2019s POK\u00e9MON LAB. Research into POK\u00e9MON and quarterly returns."}]},{"id":141,"name":"mailbox","type":"talk","x":64,"y":384,"width":16,"height":16,"properties":[{"name":"message","type":"string","value":"It\u2019s stuffed with bills. Every single one says FINAL NOTICE."}]},{"id":142,"name":"floor-sign","type":"talk","x":384,"y":64,"width":16,"height":16,"properties":[{"name":"message","type":"string","value":"THE BROKER\u2019S TRADING FLOOR. Minimum deposit: 3 POK\u00e9MON. No refunds."}]},{"id":143,"name":"grass-sign","type":"talk","x":240,"y":96,"width":16,"height":16,"properties":[{"name":"message","type":"string","value":"ROUTE NOTE: Shy POK\u00e9MON hide in tall grass. Walk close and they\u2019ll jump out!"}]}]}],"tilesets":[{"firstgid":1,"name":"town","tilewidth":16,"tileheight":16,"tilecount":732,"columns":16,"image":"../frlg/town-tiles.png","imagewidth":256,"imageheight":736}]}